X: 27390
T: Mockingbird Hill
R: waltz
M: 3/4
K: Gmajor
|:d^c=c|B3 B B2|B2 A2 G2|F4 d2|c6|
d3 d d2|c2 B2 A2|g2 f2 e2|de dc BA|
B3 B B2|B2 A2 G2|F4 d2|c6|
d3 d d2|c2 B2 A2|G3 G G2|G3:|

